icons/customer-service-line.svg

<svg viewBox="0 0 24 24" fill="currentColor" xmlns="http://www.w3.org/2000/svg">
    <path d="M22 17.0022C21.999 19.8731 19.9816 22.2726 17.2872 22.8616L16.6492 20.9476C17.8532 20.7511 18.8765 20.0171 19.4649 19H17C15.8954 19 15 18.1046 15 17V13C15 11.8954 15.8954 11 17 11H19.9381C19.446 7.05369 16.0796 4 12 4C7.92038 4 4.55399 7.05369 4.06189 11H7C8.10457 11 9 11.8954 9 13V17C9 18.1046 8.10457 19 7 19H4C2.89543 19 2 18.1046 2 17V12C2 6.47715 6.47715 2 12 2C17.5228 2 22 6.47715 22 12V12.9987V13V17V17.0013V17.0022ZM20 17V13H17V17H20ZM4 13V17H7V13H4Z"/>
</svg>

<svg xmlns="http://www.w3.org/2000/svg" viewBox="0 0 24 24">
    <g>
        <path fill="none" d="M0 0h24v24H0z"/>
        <path d="M22 17.002a6.002 6.002 0 0 1-4.713 5.86l-.638-1.914A4.003 4.003 0 0 0 19.465 19H17a2 2 0 0 1-2-2v-4a2 2 0 0 1 2-2h2.938a8.001 8.001 0 0 0-15.876 0H7a2 2 0 0 1 2 2v4a2 2 0 0 1-2 2H4a2 2 0 0 1-2-2v-5C2 6.477 6.477 2 12 2s10 4.477 10 10V17.002zM20 17v-4h-3v4h3zM4 13v4h3v-4H4z"/>
    </g>
</svg>
